icons/svg/road_shields/h_white_usshield_2_road_shield.svg

<?xml version="1.0" encoding="UTF-8" standalone="no"?>
<!-- Generator: Adobe Illustrator 16.0.4, SVG Export Plug-In . SVG Version: 6.00 Build 0)  -->

<svg
   xmlns:dc="http://purl.org/dc/elements/1.1/"
   xmlns:cc="http://creativecommons.org/ns#"
   xmlns:rdf="http://www.w3.org/1999/02/22-rdf-syntax-ns#"
   xmlns:svg="http://www.w3.org/2000/svg"
   xmlns="http://www.w3.org/2000/svg"
   xmlns:sodipodi="http://sodipodi.sourceforge.net/DTD/sodipodi-0.dtd"
   xmlns:inkscape="http://www.inkscape.org/namespaces/inkscape"
   version="1.1"
   id="Слой_1"
   x="0px"
   y="0px"
   width="25"
   height="25"
   viewBox="0 0 25 25"
   enable-background="new 0 0 17.143 17.17"
   xml:space="preserve"
   inkscape:version="0.91 r13725"
   sodipodi:docname="h_white_usshield_2_road_shield.svg"><metadata
     id="metadata13"><rdf:RDF><cc:Work
         rdf:about=""><dc:format>image/svg+xml</dc:format><dc:type
           rdf:resource="http://purl.org/dc/dcmitype/StillImage" /><dc:title></dc:title></cc:Work></rdf:RDF></metadata><defs
     id="defs11" /><sodipodi:namedview
     pagecolor="#ffffff"
     bordercolor="#666666"
     borderopacity="1"
     objecttolerance="10"
     gridtolerance="10"
     guidetolerance="10"
     inkscape:pageopacity="0"
     inkscape:pageshadow="2"
     inkscape:window-width="1920"
     inkscape:window-height="1006"
     id="namedview9"
     showgrid="false"
     inkscape:zoom="19.43823"
     inkscape:cx="-0.57201928"
     inkscape:cy="16.867261"
     inkscape:window-x="1920"
     inkscape:window-y="0"
     inkscape:window-maximized="1"
     inkscape:current-layer="Слой_1" /><path
     id="path11"
     d="m 12.499998,3.6533632 c 0.825198,0.6433767 1.895117,1.0316812 3.064142,1.0316812 1.169024,0 2.238943,-0.3883671 3.064141,-1.0317594 l 4.027158,3.6855591 c -0.741071,0.9640323 -1.176207,2.139352 -1.176207,3.4075929 0,0.912205 0.225058,1.776273 0.627192,2.548235 0.347452,0.667413 0.549015,1.427935 0.549015,2.216499 0,2.832022 -2.508492,5.127735 -5.603002,5.127735 l -0.879436,0 c -1.48286,0 -2.806254,0.624817 -3.673003,1.602417 -0.866765,-0.9776 -2.190143,-1.602417 -3.6730026,-1.602417 l -0.8794531,0 c -3.0944921,0 -5.6030015,-2.295713 -5.6030015,-5.127735 0,-0.788564 0.2015801,-1.549086 0.549049,-2.216499 0.4021002,-0.771962 0.6271915,-1.63603 0.6271915,-2.548235 0,-1.2682409 -0.4351697,-2.4435606 -1.1762234,-3.4075929 L 6.3717153,3.653285 c 0.8251978,0.6433923 1.8950997,1.0317594 3.0641415,1.0317594 1.1690242,0 2.2389432,-0.3883045 3.0641412,-1.0316812 z"
     inkscape:connector-curvature="0"
     style="color:#000000;clip-rule:evenodd;display:inline;overflow:visible;visibility:visible;opacity:1;isolation:auto;mix-blend-mode:normal;color-interpolation:sRGB;color-interpolation-filters:linearRGB;solid-color:#000000;solid-opacity:1;fill:#ffffff;fill-opacity:1;fill-rule:evenodd;stroke:#696969;stroke-width:0.99999994;stroke-linecap:butt;stroke-linejoin:miter;stroke-miterlimit:4;stroke-dasharray:none;stroke-dashoffset:0;stroke-opacity:1;color-rendering:auto;image-rendering:auto;shape-rendering:auto;text-rendering:auto;enable-background:accumulate" /></svg>

<svg width="25" height="25" viewBox="0 0 25 25" fill="none" xmlns="http://www.w3.org/2000/svg">
<path fill-rule="evenodd" clip-rule="evenodd" d="M12.5 3.65334C13.3252 4.29671 14.3951 4.68502 15.5641 4.68502C16.7332 4.68502 17.8031 4.29665 18.6283 3.65326L22.6554 7.33882C21.9144 8.30285 21.4792 9.47817 21.4792 10.7464C21.4792 11.6586 21.7043 12.5227 22.1064 13.2946C22.4539 13.9621 22.6554 14.7226 22.6554 15.5111C22.6554 18.3432 20.1469 20.6389 17.0524 20.6389H16.173C14.6901 20.6389 13.3667 21.2637 12.5 22.2413C11.6332 21.2637 10.3099 20.6389 8.827 20.6389H7.94755C4.85305 20.6389 2.34454 18.3432 2.34454 15.5111C2.34454 14.7226 2.54612 13.9621 2.89359 13.2946C3.29569 12.5227 3.52078 11.6586 3.52078 10.7464C3.52078 9.47817 3.08561 8.30285 2.34456 7.33882L6.37172 3.65326C7.19692 4.29665 8.26682 4.68502 9.43586 4.68502C10.6049 4.68502 11.6748 4.29671 12.5 3.65334Z" fill="white" stroke="#696969"/>
</svg>
